!!!OTL: Der heimkehrende Soldat Es reist ein Matrose vom Kriege heim, Kuckuck,
!!!ARE: Europa, Osteuropa, UdSSR, Ukraine
!!!YOR: 5, S. 160
!!    1931 gedruckt in Wien
!!!SCT: Q0103K
!!!YEM: Copyright 1995, estate of Helmut Schaffrath.
**kern
*ICvox
*Ivox
*M6/8
*k[f#]
*G:
{8d
=1
8g
8g
8g
8g
8a
8b
=2
4b
8a
8a
8b
8cc
=3
4.b
4r}
{8d
=4
8g
8g
8g
8g
8a
8b
=5
4b
8a
8.a
16b
8cc
=6
4.b
8r}
{8g
8b
=7
8dd
8dd
8dd
4ee
8dd
=8
4dd
16cc
16b
4cc}
{8dd
=9
4b
8b
4dd
16cc
16b
=10
4b
8a
8a
8r}
{8dd
=11
8b
8b
8b
8a
16a
16b
8cc
=12
4.b
4r}
{16g
16b
=13
8dd
8dd
8dd
4ee
8dd
=14
4dd
16cc
16b
4cc}
{8dd
=15
4b
8b
4dd
16cc
16b
=16
4b
8a
8a
8r}
{8dd
=17
8b
8b
8b
8a
16a
16b
8cc
=18
8.b
16cc
8b
8a
8a
8cc
=19
4.b
4r}
==
!!!AGN: Ballade, Ehe, Betrug
!! Verzierung. Pause am Ende der 2. Zeile korrigiert.
!!    Anhaengsel; fuenfte und letzte Zeile = Refrain.
!!!ONB: ESAC (Essen Associative Code) Database: BALLADE
!!!AMT: compound duple
!!!AIN: vox
!!!EED: Helmut Schaffrath
!!!EEV: 1.0
*-
